; Generated by raster2lineus_direct.py
G28
G01 Z1000
G01 X1569.0 Y-383.3 Z1000
G01 Z0
G01 X1609.5 Y-400
G01 X1571.4 Y-383.3
G01 Z1000
G01 X1466.7 Y-257.1 Z1000
G01 Z0
G01 X1466.7 Y-254.8
G01 Z1000
G01 X1485.7 Y-216.7 Z1000
G01 Z0
G01 X1533.3 Y-326.2
G01 X1490.5 Y-383.3
G01 X1526.2 Y-309.5
G01 X1545.2 Y-319.0
G01 X1495.2 Y-385.7
G01 X1561.9 Y-316.7
G01 X1616.7 Y-347.6
G01 X1526.2 Y-369.0
G01 X1600 Y-352.4
G01 X1645.2 Y-397.6
G01 X1604.8 Y-350
G01 X1650 Y-397.6
G01 X1628.6 Y-354.8
G01 X1678.6 Y-400
G01 X1628.6 Y-354.8
G01 X1683.3 Y-400
G01 X1645.2 Y-361.9
G01 X1671.4 Y-245.2
G01 X1671.4 Y-281.0
G01 X1669.0 Y-259.5
G01 X1631.0 Y-295.2
G01 X1669.0 Y-283.3
G01 X1638.1 Y-357.1
G01 X1535.7 Y-321.4
G01 X1519.0 Y-285.7
G01 X1611.9 Y-307.1
G01 X1661.9 Y-281.0
G01 X1621.4 Y-304.8
G01 X1514.3 Y-285.7
G01 X1507.1 Y-231.0
G01 X1576.2 Y-242.9
G01 X1488.1 Y-216.7
G01 Z1000
G01 X1442.9 Y-200 Z1000
G01 Z0
G01 X1457.1 Y-231.0
G01 X1469.0 Y-214.3
G01 X1481.0 Y-326.2
G01 X1440.5 Y-197.6
G01 Z1000
G01 X1383.3 Y-200 Z1000
G01 Z0
G01 X1433.3 Y-319.0
G01 X1421.4 Y-245.2
G01 X1476.2 Y-323.8
G01 X1433.3 Y-273.8
G01 X1426.2 Y-290.5
G01 X1485.7 Y-335.7
G01 X1433.3 Y-283.3
G01 X1428.6 Y-314.3
G01 X1400 Y-245.2
G01 X1378.6 Y-252.4
G01 X1397.6 Y-228.6
G01 X1350 Y-269.0
G01 X1364.3 Y-307.1
G01 X1376.2 Y-257.1
G01 X1378.6 Y-342.9
G01 X1369.0 Y-261.9
G01 X1350 Y-338.1
G01 X1350 Y-269.0
G01 X1395.2 Y-233.3
G01 X1381.0 Y-197.6
G01 Z1000
G01 X1347.6 Y-178.6 Z1000
G01 Z0
G01 X1376.2 Y-195.2
G01 X1261.9 Y-400
G01 X1347.6 Y-257.1
G01 X1364.3 Y-185.7
G01 X1345.2 Y-195.2
G01 X1347.6 Y-176.2
G01 Z1000
G01 X1338.1 Y-209.5 Z1000
G01 Z0
G01 X1238.1 Y-364.3
G01 X1335.7 Y-211.9
G01 Z1000
G01 X1311.9 Y-271.4 Z1000
G01 Z0
G01 X1247.6 Y-369.0
G01 X1309.5 Y-273.8
G01 Z1000
G01 X1333.3 Y-307.1 Z1000
G01 Z0
G01 X1307.1 Y-400
G01 X1331.0 Y-309.5
G01 Z1000
G01 X1354.8 Y-321.4 Z1000
G01 Z0
G01 X1371.4 Y-395.2
G01 X1354.8 Y-323.8
G01 Z1000
G01 X1300 Y-345.2 Z1000
G01 Z0
G01 X1297.6 Y-347.6
G01 Z1000
G01 X1300 Y-154.8 Z1000
G01 Z0
G01 X1335.7 Y-200
G01 X1300 Y-152.4
G01 Z1000
G01 X1288.1 Y-133.3 Z1000
G01 Z0
G01 X1266.7 Y-254.8
G01 X1200 Y-400
G01 X1285.7 Y-131.0
G01 Z1000
G01 X1283.3 Y-64.3 Z1000
G01 Z0
G01 X1307.1 Y-121.4
G01 X1385.7 Y-195.2
G01 X1319.0 Y-135.7
G01 X1321.4 Y-169.0
G01 X1297.6 Y-145.2
G01 X1321.4 Y-157.1
G01 X1283.3 Y-61.9
G01 Z1000
G01 X1421.4 Y-21.4 Z1000
G01 Z0
G01 X1488.1 Y-52.4
G01 X1492.9 Y-92.9
G01 X1438.1 Y-102.4
G01 X1414.3 Y-35.7
G01 X1397.6 Y-57.1
G01 X1423.8 Y-23.8
G01 Z1000
G01 X1454.8 Y33.3 Z1000
G01 Z0
G01 X1438.1 Y26.2
G01 X1450 Y-9.5
G01 X1473.8 Y-16.7
G01 X1476.2 Y28.6
G01 X1452.4 Y35.7
G01 Z1000
G01 X1390.5 Y145.2 Z1000
G01 Z0
G01 X1390.5 Y147.6
G01 Z1000
G01 X1340.5 Y123.8 Z1000
G01 Z0
G01 X1352.4 Y-45.2
G01 X1414.3 Y-133.3
G01 X1369.0 Y-83.3
G01 X1411.9 Y-138.1
G01 X1407.1 Y-173.8
G01 X1388.1 Y-142.9
G01 X1442.9 Y-223.8
G01 X1407.1 Y-211.9
G01 X1442.9 Y-223.8
G01 X1407.1 Y-150
G01 X1471.4 Y-209.5
G01 X1364.3 Y-64.3
G01 X1340.5 Y121.4
G01 Z1000
G01 X1254.8 Y138.1 Z1000
G01 Z0
G01 X1245.2 Y4.8
G01 X1290.5 Y-128.6
G01 X1252.4 Y-61.9
G01 X1269.0 Y-150
G01 X1223.8 Y-21.4
G01 X1226.2 Y19.0
G01 X1252.4 Y-92.9
G01 X1254.8 Y140.5
G01 Z1000
G01 X1266.7 Y233.3 Z1000
G01 Z0
G01 X1223.8 Y109.5
G01 X1221.4 Y-4.8
G01 X1226.2 Y123.8
G01 X1269.0 Y235.7
G01 Z1000
G01 X1297.6 Y281.0 Z1000
G01 Z0
G01 X1300 Y283.3
G01 Z1000
G01 X1314.3 Y297.6 Z1000
G01 Z0
G01 X1278.6 Y242.9
G01 X1311.9 Y300
G01 X1228.6 Y271.4
G01 X1311.9 Y300
G01 Z1000
G01 X1402.4 Y211.9 Z1000
G01 Z0
G01 X1402.4 Y209.5
G01 Z1000
G01 X1447.6 Y226.2 Z1000
G01 Z0
G01 X1421.4 Y33.3
G01 X1435.7 Y52.4
G01 X1440.5 Y33.3
G01 X1476.2 Y45.2
G01 X1509.5 Y171.4
G01 X1481.0 Y57.1
G01 X1497.6 Y54.8
G01 X1466.7 Y40.5
G01 X1488.1 Y-26.2
G01 X1476.2 Y28.6
G01 X1459.5 Y-26.2
G01 X1488.1 Y-52.4
G01 X1490.5 Y-31.0
G01 X1495.2 Y-83.3
G01 X1440.5 Y-104.8
G01 X1407.1 Y-38.1
G01 X1388.1 Y-54.8
G01 X1459.5 Y-164.3
G01 X1400 Y-90.5
G01 X1361.9 Y69.0
G01 X1388.1 Y-21.4
G01 X1388.1 Y119.0
G01 X1388.1 Y-47.6
G01 X1407.1 Y-21.4
G01 X1397.6 Y-52.4
G01 X1423.8 Y-19.0
G01 X1469.0 Y-19.0
G01 X1442.9 Y4.8
G01 X1397.6 Y-23.8
G01 X1395.2 Y21.4
G01 X1392.9 Y-23.8
G01 X1395.2 Y23.8
G01 X1414.3 Y-4.8
G01 X1416.7 Y26.2
G01 X1419.0 Y-7.1
G01 X1431.0 Y28.6
G01 X1419.0 Y81.0
G01 X1447.6 Y228.6
G01 Z1000
G01 X1521.4 Y226.2 Z1000
G01 Z0
G01 X1523.8 Y21.4
G01 X1592.9 Y-116.7
G01 X1571.4 Y-26.2
G01 X1578.6 Y-92.9
G01 X1528.6 Y2.4
G01 X1521.4 Y223.8
G01 Z1000
G01 X1559.5 Y197.6 Z1000
G01 Z0
G01 X1588.1 Y83.3
G01 X1559.5 Y195.2
G01 Z1000
G01 X1559.5 Y164.3 Z1000
G01 Z0
G01 X1559.5 Y161.9
G01 Z1000
G01 X1654.8 Y81.0 Z1000
G01 Z0
G01 X1673.8 Y40.5
G01 X1714.3 Y38.1
G01 X1676.2 Y26.2
G01 X1659.5 Y45.2
G01 X1659.5 Y19.0
G01 X1654.8 Y78.6
G01 Z1000
G01 X1735.7 Y4.8 Z1000
G01 Z0
G01 X1740.5 Y-11.9
G01 X1719.0 Y-7.1
G01 X1752.4 Y-21.4
G01 X1740.5 Y-157.1
G01 X1740.5 Y-11.9
G01 X1757.1 Y-16.7
G01 X1735.7 Y2.4
G01 Z1000
G01 X1776.2 Y52.4 Z1000
G01 Z0
G01 X1764.3 Y-107.1
G01 X1778.6 Y52.4
G01 Z1000
G01 X1871.4 Y88.1 Z1000
G01 Z0
G01 X1845.2 Y-40.5
G01 X1871.4 Y90.5
G01 Z1000
G01 X1883.3 Y50 Z1000
G01 Z0
G01 X1859.5 Y-33.3
G01 X1883.3 Y47.6
G01 Z1000
G01 X1892.9 Y42.9 Z1000
G01 Z0
G01 X1985.7 Y-371.4
G01 X1964.3 Y-350
G01 X1997.6 Y-400
G01 X1933.3 Y-202.4
G01 X1892.9 Y40.5
G01 Z1000
G01 X1854.8 Y-35.7 Z1000
G01 Z0
G01 X1840.5 Y-85.7
G01 X1857.1 Y-38.1
G01 Z1000
G01 X1842.9 Y-45.2 Z1000
G01 Z0
G01 X1757.1 Y-171.4
G01 X1809.5 Y-123.8
G01 X1733.3 Y-331.0
G01 X1840.5 Y-47.6
G01 Z1000
G01 X1816.7 Y-57.1 Z1000
G01 Z0
G01 X1792.9 Y-104.8
G01 X1816.7 Y-59.5
G01 Z1000
G01 X1833.3 Y-85.7 Z1000
G01 Z0
G01 X1878.6 Y-304.8
G01 X1928.6 Y-400
G01 X1907.1 Y-352.4
G01 X1947.6 Y-395.2
G01 X1871.4 Y-271.4
G01 X1833.3 Y-88.1
G01 Z1000
G01 X1790.5 Y-111.9 Z1000
G01 Z0
G01 X1788.1 Y-114.3
G01 Z1000
G01 X1759.5 Y-90.5 Z1000
G01 Z0
G01 X1759.5 Y-88.1
G01 Z1000
G01 X1728.6 Y-145.2 Z1000
G01 Z0
G01 X1678.6 Y-197.6
G01 X1581.0 Y-240.5
G01 X1714.3 Y-169.0
G01 X1671.4 Y-207.1
G01 X1676.2 Y-252.4
G01 X1676.2 Y-209.5
G01 X1723.8 Y-173.8
G01 X1723.8 Y-352.4
G01 X1728.6 Y-147.6
G01 Z1000
G01 X1819.0 Y-216.7 Z1000
G01 Z0
G01 X1854.8 Y-269.0
G01 X1833.3 Y-238.1
G01 X1845.2 Y-288.1
G01 X1809.5 Y-359.5
G01 X1850 Y-269.0
G01 X1878.6 Y-316.7
G01 X1821.4 Y-219.0
G01 Z1000
G01 X1826.2 Y-228.6 Z1000
G01 Z0
G01 X1828.6 Y-297.6
G01 X1773.8 Y-400
G01 X1826.2 Y-307.1
G01 X1828.6 Y-231.0
G01 Z1000
G01 X1823.8 Y-235.7 Z1000
G01 Z0
G01 X1797.6 Y-340.5
G01 X1823.8 Y-238.1
G01 Z1000
G01 X1859.5 Y-152.4 Z1000
G01 Z0
G01 X1902.4 Y-309.5
G01 X1859.5 Y-150
G01 Z1000
G01 X1895.2 Y-154.8 Z1000
G01 Z0
G01 X1947.6 Y-304.8
G01 X1895.2 Y-157.1
G01 Z1000
G01 X1873.8 Y-316.7 Z1000
G01 Z0
G01 X1904.8 Y-395.2
G01 X1873.8 Y-319.0
G01 Z1000
G01 X1854.8 Y-338.1 Z1000
G01 Z0
G01 X1852.4 Y-340.5
G01 Z1000
G01 X1854.8 Y-345.2 Z1000
G01 Z0
G01 X1857.1 Y-342.9
G01 Z1000
G01 X1797.6 Y-352.4 Z1000
G01 Z0
G01 X1769.0 Y-392.9
G01 X1797.6 Y-354.8
G01 Z1000
G01 X1557.1 Y-69.0 Z1000
G01 Z0
G01 X1592.9 Y-114.3
G01 X1557.1 Y-66.7
G01 Z1000
G01 X1688.1 Y211.9 Z1000
G01 Z0
G01 X1726.2 Y47.6
G01 X1759.5 Y50
G01 X1757.1 Y102.4
G01 X1759.5 Y26.2
G01 X1731.0 Y38.1
G01 X1731.0 Y-2.4
G01 X1681.0 Y-4.8
G01 X1709.5 Y-7.1
G01 X1638.1 Y-16.7
G01 X1661.9 Y-2.4
G01 X1635.7 Y0
G01 X1638.1 Y-66.7
G01 X1640.5 Y-31.0
G01 X1678.6 Y-11.9
G01 X1726.2 Y-16.7
G01 X1747.6 Y-47.6
G01 X1711.9 Y-11.9
G01 X1645.2 Y-28.6
G01 X1645.2 Y-90.5
G01 X1692.9 Y-104.8
G01 X1726.2 Y-23.8
G01 X1719.0 Y-88.1
G01 X1657.1 Y-102.4
G01 X1614.3 Y16.7
G01 X1628.6 Y-7.1
G01 X1657.1 Y33.3
G01 X1609.5 Y42.9
G01 X1621.4 Y14.3
G01 X1597.6 Y47.6
G01 X1654.8 Y42.9
G01 X1619.0 Y181.0
G01 X1673.8 Y42.9
G01 X1723.8 Y35.7
G01 X1726.2 Y2.4
G01 X1719.0 Y38.1
G01 X1678.6 Y33.3
G01 X1688.1 Y4.8
G01 X1664.3 Y35.7
G01 X1661.9 Y-7.1
G01 X1731.0 Y0
G01 X1688.1 Y214.3
G01 Z1000
G01 X1833.3 Y300 Z1000
G01 Z0
G01 X1878.6 Y178.6
G01 X1888.1 Y45.2
G01 X1883.3 Y178.6
G01 X1835.7 Y297.6
G01 Z1000
